lib/brands/logos/suzy.svg

<svg xmlns="http://www.w3.org/2000/svg" fill="none" aria-hidden="true" viewBox="0 0 161 73"><g id="Suzy"><g id="Group"><path id="Vector" fill="#6924C2" d="M51.1015 18.5155C51.4252 18.7024 51.694 18.9713 51.8808 19.2952C52.0676 19.619 52.1657 19.9864 52.1653 20.3603V34.3434L49.4887 32.8042C49.0077 32.5285 48.6083 32.1304 48.331 31.6503C48.0536 31.1703 47.9084 30.6253 47.9099 30.0709V22.5842C47.9087 22.2791 47.827 21.9798 47.673 21.7164C47.5189 21.4531 47.2981 21.2351 47.0327 21.0846L30.6219 11.6003C29.8552 11.1583 28.9858 10.9256 28.1008 10.9256C27.2159 10.9256 26.3465 11.1583 25.5798 11.6003L9.11804 21.0846C8.85624 21.2377 8.63909 21.4567 8.48819 21.7198C8.33728 21.9829 8.25789 22.2809 8.25789 22.5842V28.7581L37.2145 45.5254L35.0415 46.7817C34.4083 47.1472 33.6901 47.3397 32.959 47.3397C32.2279 47.3397 31.5097 47.1472 30.8765 46.7817L5.0889 31.8309C4.7659 31.6431 4.49772 31.3739 4.31107 31.0503C4.12441 30.7266 4.02579 30.3597 4.02502 29.9861V20.3659C4.02565 19.993 4.12425 19.6268 4.31097 19.3041C4.49769 18.9813 4.76596 18.7132 5.0889 18.5268L24.6744 7.20896C25.7134 6.60842 26.8923 6.29224 28.0924 6.29224C29.2924 6.29224 30.4713 6.60842 31.5103 7.20896L51.1015 18.5155ZM24.6744 65.2411C25.7134 65.8416 26.8923 66.1578 28.0924 66.1578C29.2924 66.1578 30.4713 65.8416 31.5103 65.2411L51.1015 53.9232C51.4244 53.7368 51.6927 53.4687 51.8794 53.146C52.0661 52.8232 52.1647 52.457 52.1653 52.0841V42.464C52.164 42.0904 52.0652 41.7237 51.8786 41.4002C51.692 41.0766 51.4241 40.8074 51.1015 40.6191L25.3138 25.6287C24.6807 25.2632 23.9625 25.0707 23.2314 25.0707C22.5003 25.0707 21.782 25.2632 21.1489 25.6287L18.9759 26.885L47.9099 43.6523V49.8262C47.9087 50.1313 47.827 50.4306 47.673 50.694C47.5189 50.9573 47.2981 51.1753 47.0327 51.3258L30.6219 60.8101C29.8552 61.2521 28.9858 61.4848 28.1008 61.4848C27.2159 61.4848 26.3465 61.2521 25.5798 60.8101L9.11804 51.3258C8.86045 51.1699 8.64781 50.9496 8.50099 50.6867C8.35416 50.4238 8.27819 50.1273 8.28052 49.8262V42.3395C8.28086 41.7853 8.13508 41.2408 7.85789 40.761C7.5807 40.2811 7.1819 39.8828 6.70169 39.6062L4.02502 38.067V52.0558C4.02565 52.4287 4.12425 52.7949 4.31097 53.1177C4.49769 53.4404 4.76596 53.7085 5.0889 53.8949L24.6744 65.2411Z"/><g id="Vector_2"><path fill="#1E1945" d="M61.4573 43.89C62.0099 43.2435 62.7675 42.806 63.6037 42.6505C64.4399 42.495 65.3042 42.6309 66.0523 43.0355C67.2914 43.6842 68.6716 44.0166 70.0701 44.0032C72.2941 44.0032 73.6918 42.979 73.6918 41.4341V41.3379C73.6918 39.8779 72.877 39.0743 69.0798 38.2142C64.7281 37.1616 62.2891 35.877 62.2891 32.1082V32.0516C62.2891 28.5487 65.2091 26.1267 69.2666 26.1267C71.9649 26.0718 74.594 26.983 76.6797 28.6959C76.1951 29.3758 75.4934 29.8707 74.6902 30.099C73.887 30.3273 73.03 30.2755 72.2601 29.9522C71.2969 29.5349 70.2597 29.3155 69.21 29.307C67.1049 29.307 65.8769 30.3879 65.8769 31.7291V31.7913C65.8769 33.3645 66.8163 34.0549 70.7266 34.9999C75.0443 36.0525 77.2966 37.5973 77.2966 40.987V41.0436C77.2966 44.869 74.286 47.1439 69.9966 47.1439C66.8432 47.1664 63.7961 46.0053 61.4573 43.89Z"/><path fill="#1E1945" d="M86.9676 38.1915V26.4267C87.9207 26.4267 88.8347 26.8052 89.5086 27.4791C90.1825 28.153 90.561 29.067 90.561 30.0201V38.0501C90.561 41.8415 92.519 43.89 95.7276 43.89C98.9362 43.89 100.866 41.9604 100.866 38.1915V26.4267H104.459V38.0161C104.459 44.1221 101.013 47.1892 95.671 47.1892C90.329 47.1892 86.9676 44.1221 86.9676 38.1915Z"/><path fill="#1E1945" d="M113.949 44.2069L126.008 29.6126H117.52C117.102 29.6126 116.688 29.5302 116.302 29.37C115.915 29.2098 115.565 28.975 115.269 28.6791C114.974 28.3832 114.74 28.032 114.58 27.6454C114.421 27.2589 114.339 26.8448 114.34 26.4267H130.688V29.0863L118.624 43.6807H127.497C128.342 43.6807 129.152 44.0163 129.75 44.6138C130.347 45.2113 130.683 46.0217 130.683 46.8666H113.949V44.2069Z"/><path fill="#1E1945" d="M144.547 38.8083L136.443 26.4267H140.682L146.403 35.4809L152.181 26.4267H156.301L148.163 38.7178V43.2449C148.163 44.2045 147.782 45.1248 147.104 45.8039C146.426 46.4829 145.507 46.8651 144.547 46.8666V38.8083Z"/><path fill="#1E1945" d="M153.753 46.2781H154.026V44.4175H154.665V44.188H153.117V44.4175H153.753V46.2781Z"/><path fill="#1E1945" d="M156.711 46.2781H156.975L156.845 44.188H156.501L156.128 45.199C156.035 45.4626 155.961 45.692 155.908 45.9029H155.899C155.846 45.6858 155.775 45.4564 155.688 45.199L155.331 44.188H154.987L154.842 46.2781H155.099L155.155 45.3819C155.173 45.0687 155.189 44.7183 155.195 44.4578H155.201C155.26 44.7059 155.344 44.9757 155.443 45.2703L155.781 46.2657H155.986L156.355 45.2517C156.46 44.9633 156.547 44.7028 156.618 44.4578H156.628C156.625 44.7183 156.643 45.0687 156.659 45.3602L156.711 46.2781Z"/></g></g></g></svg>

<svg xmlns="http://www.w3.org/2000/svg" fill="none" aria-hidden="true" viewBox="0 0 161 73"><path fill="#6924C2" d="M51.101 18.515a2.128 2.128 0 0 1 1.064 1.845v13.983l-2.676-1.539a3.14 3.14 0 0 1-1.58-2.733v-7.487a1.73 1.73 0 0 0-.876-1.5L30.622 11.6a5.048 5.048 0 0 0-5.042 0L9.118 21.085a1.737 1.737 0 0 0-.86 1.5v6.173l28.956 16.767-2.173 1.257a4.165 4.165 0 0 1-4.165 0L5.09 31.83a2.14 2.14 0 0 1-1.064-1.845v-9.62a2.127 2.127 0 0 1 1.064-1.84L24.674 7.21a6.83 6.83 0 0 1 6.836 0l19.591 11.306ZM24.674 65.242a6.83 6.83 0 0 0 6.836 0l19.591-11.318a2.128 2.128 0 0 0 1.064-1.839v-9.62a2.144 2.144 0 0 0-1.064-1.845L25.314 25.63a4.165 4.165 0 0 0-4.165 0l-2.173 1.256L47.91 43.652v6.174a1.73 1.73 0 0 1-.877 1.5L30.622 60.81a5.048 5.048 0 0 1-5.042 0L9.118 51.326a1.737 1.737 0 0 1-.838-1.5V42.34a3.152 3.152 0 0 0-1.578-2.734l-2.677-1.539v13.989a2.128 2.128 0 0 0 1.064 1.839L24.674 65.24Z"/><path fill="#1E1945" d="M61.457 43.89a3.718 3.718 0 0 1 4.595-.855 8.49 8.49 0 0 0 4.018.968c2.224 0 3.622-1.024 3.622-2.569v-.096c0-1.46-.815-2.264-4.612-3.124-4.352-1.053-6.791-2.337-6.791-6.106v-.056c0-3.503 2.92-5.925 6.977-5.925a11.318 11.318 0 0 1 7.413 2.569 3.678 3.678 0 0 1-4.42 1.256 7.83 7.83 0 0 0-3.05-.645c-2.104 0-3.332 1.08-3.332 2.422v.062c0 1.573.939 2.264 4.85 3.209 4.317 1.052 6.57 2.597 6.57 5.987v.057c0 3.825-3.011 6.1-7.3 6.1a12.597 12.597 0 0 1-8.54-3.254Zm25.51-5.699V26.427a3.593 3.593 0 0 1 3.594 3.593v8.03c0 3.792 1.958 5.84 5.166 5.84 3.209 0 5.139-1.93 5.139-5.699V26.427h3.593v11.589c0 6.106-3.446 9.173-8.788 9.173-5.342 0-8.704-3.067-8.704-8.998Zm26.982 6.016 12.059-14.594h-8.488a3.187 3.187 0 0 1-2.251-.934 3.179 3.179 0 0 1-.929-2.252h16.348v2.66L118.623 43.68h8.873a3.186 3.186 0 0 1 3.186 3.186h-16.733v-2.66Zm30.598-5.399-8.104-12.381h4.239l5.721 9.054 5.778-9.054h4.119l-8.137 12.29v4.528a3.622 3.622 0 0 1-3.616 3.622v-8.059Zm9.206 7.47h.273v-1.86h.638v-.23h-1.547v.23h.636v1.86Zm2.958 0h.264l-.13-2.09h-.345l-.372 1.01a8.055 8.055 0 0 0-.22.705h-.009a8.567 8.567 0 0 0-.211-.704l-.357-1.011h-.344l-.146 2.09h.258l.055-.896c.019-.313.035-.664.041-.924h.006c.059.248.143.518.242.812l.338.996h.205l.369-1.014c.105-.289.192-.55.263-.794h.009c-.003.26.016.61.031.902l.053.918Z"/></svg>
